X:2222
T:Jemmy as Nancy 
C:Traditional
O:Isle of Man
Z:Clague collection
B:Kiaull Vannin #222 
M:2/4 
L:1/8 
K:D 
B|B2 AF|BB Bc|d2 dc|BA GF|B2 AF|EF !fermata!GA|B2 Bc|B3 B/A/| 
G2 FE|B2 Bc|d2 dc|Bc dB|e2 eB|c2 BA|G2 F>G|E3|| 

